!!!!SEGMENT: pl-wtm--r-730-30-m_moniuszko-stanislaw--piesn.krn
!!!cenid: 18xx:1710
!!!COM: Moniuszko, Stanisław
!!!COM-rismID: pe30008351
!!!CDT: 1819/05/05-1872/06/04
!!!CNT: Polish
!!!OTL: Pieśń
!!!PDT:
!!!AGN: Secular
!!!YEC: Copyright 2022 Narodowy Instytut Fryderyka Chopina (https://polishscores.org)
!!!YEM: License CC-BY-4.0 (https://creativecommons.org/licenses/by/4.0)
!!!SMS-siglum: PL-Wtm
!!!SMS-shelfmark: R 730/30/M
!!!SMS-shelfwork: W
!!!SMS-variant:
!!!SMS-altvar:
!!!NIFC-rismSourceID: 1001099842
!!!NIFC-rismChildID: 1001099842
!!!NIFC-islandoraID:
!!!URL-pdf-islandora:
!!!URL-scan:
!!!IIIF:
!!!ONB-nifc: Skan 0035, R 730|30, Largo (incpl.)
!!!AIN: 1 piano 1 soprn
!!!key:
**kern	**kern	**kern
*part2	*part2	*part1
*staff3	*staff2	*staff1
*Ipiano	*Iempty	*Isoprn
*I"Piano	*	*I"Soprano
*I'P-no	*	*I'S.
*clefF4	*clefG2	*clefG2
*k[b-e-a-d-g-]	*k[b-e-a-d-g-]	*k[b-e-a-d-g-]
*D-:	*D-:	*D-:
*M4/4	*M4/4	*M4/4
*met(c)	*met(c)	*met(c)
=1	=1	=1
*	*^	*
*	*	*^	*
*	*	*	*2\right	*
!	!	!	!	!LO:TX:t=P:problem=4\, 2\right&colon; global
!LO:TX:t=P:problem=4\, 2\, 8\right&colon; global	!LO:TX:t=P:problem=4\, 2\, 8\right&colon; global	!	!	!LO:TX:a:t=Largo.
1r	4r	4r	2d-\	1r
.	4aa-/ 4ff/	4ryy	.	.
.	4bb-/ 4gg-/	4g-\	2dd-\	.
.	4ccc/ 4aan/	4ff\ 4f\	.	.
*	*	*v	*v	*
=2	=2	=2	=2
1r	2ddd-/ 2bb-/	2ff\ 2b-\	1r
.	2eee-/ 2ccc/ 2gg-/	(>2g-\	.
=3	=3	=3	=3
1r	4ddd-/ 4ff/ 4a-/)	2d-\	1r
.	4aa-/ 4dd-/ 4f/	.	.
.	4ff/ 4a-/ 4d-/	2ryy	.
.	4dd-/ 4f/ 4A-/	.	.
=4	=4	=4	=4
*	*	*^	*
2AA-/	&(2ee-/	((4dd-\	2g-\	1r
.	.	8cc\L	.	.
.	.	8b-\J	.	.
(2A-\	4ryy	4ryy	2cc\)&)	.
.	8ff/L)	8a-\L	.	.
.	8ee-/J	8g-\J	.	.
*	*	*v	*v	*
=5	=5	=5	=5
*^	*	*	*
2A-/)	1D-\	(2dd-/	2f\	1r
4B--/	.	4a-/	4g-\	.
8A-/L	.	4ryy	8f\L	.
8G-/J	.	.	8e-\J	.
*v	*v	*	*	*
*	*v	*v	*
=6	=6	=6
1A-\ 1D-\	1f/ 1d-/)	2a-/
.	.	4f/
.	.	4a-/
=7	=7	=7
*	*^	*
*	*	*	*2\right
1D-\	2a-/	2f\	2.dd-\
.	2f/	2d-\	.
.	.	.	4dd-\
*	*v	*v	*
=8	=8	=8
1A-\ 1D-\	1g-/ 1e-/	2cc\
.	.	4b-\
.	.	4cc\
=9	=9	=9
*	*^	*
1D-\	2f/ 2d-/	2ryy	2dd-\
.	4g-/	2e-\	4cc\
.	4gn/	.	4b-\
!!LO:LB:g=original
=10	=10	=10	=10
2C/	2a-/ 2e-/	2ryy	2a-/
2BB-/	4f/	[2d-\	4f/
.	[4f-X/	.	4g-/
*	*v	*v	*
=11	=11	=11
2AA-/	4f-X/] 4d-/]	2a-/
.	4e-/ 4c/	.
4GGn/	4e-/ 4B-/	4b-\
4AA-/	4e-/ 4A-/	4cc\
=12	=12	=12
2BB-/	4dn/ 4F/	1b-\
.	4f/ 4A-/	.
2EE-/	4e-/ 4G-/	.
!	!LO:SIC:v:n=2:s=4G-	!
.	4d/ 4B-X/	.
=13	=13	=13
*	*^	*
*	*	*^	*
1AA-/	4r	2ryy	1c/ 1A-/	2a-/
.	4e-/	.	.	.
.	4f/	4d-\	.	2r
.	4g-/	4e-\	.	.
*	*v	*v	*v	*
=14	=14	=14
*2\right	*	*
2.D-\	1a-/ 1f/ 1d-/	2a-/
.	.	4f/
4F\	.	4a-/
=15	=15	=15
2.FF/	1a-/ 1f/ 1c/	2.cc\
4AA-/	.	4cc\
=16	=16	=16
*	*^	*
2C/	2.gn/	2en\	2cc\
2c\	.	[>2e-X\	4g-/
.	[>4g-X/	.	4an/
*	*v	*v	*
=17	=17	=17
2B-\	4g-/] 4e-/]	(2b-/
.	8f/L 8dn/	.
.	8e-/J 8c/	.
2BB-/	4f/ 4d/	4f/)
.	[>4f-X/ [>4d-X/	4gn/
=18	=18	=18
2AA-/	4f-X/] 4d-X/]	2a-/
.	8e-/L 8c/	.
.	8d-/J 8B-/	.
4A-\	2e-/ 2c/	4a-/
4G-\	.	4a-/
!!LO:LB:g=original
=19	=19	=19
*	*^	*
2F-X\	4e-/	2A-\	2dd-\
.	8d-/L	.	.
.	8c/J	.	.
2G-\	4d-/	2B-X\	4cc-X\
.	8e-/L	.	4b--\
.	8d-/J	.	.
*	*v	*v	*
=20	=20	=20
2A-\	4c/	(>2.a-/
.	4e-/ 4c/	.
4C/	4g-/ 4e-/	.
4D-/	4f-X/ 4d-/	4b--/)
=21	=21	=21
*^	*^	*
2ryy	1AA-\	4e-/	1c\	2a-/
.	.	4en/	.	.
4A-/	.	4.f/	.	2r
4G-/	.	.	.	.
.	.	8e/	.	.
*	*	*v	*v	*
=22	=22	=22	=22
4F/	1AA-\	(4d-/	2a-/
8E-/L	.	8c/L	.
8D-/J	.	8B-/J	.
4C/	.	4A-/	4a-/
4D-/	.	4B-/)	4a-/
=23	=23	=23	=23
4E-/	1AA-\	(>4c/	2.a-/
4F-X/	.	4d-/	.
4A-/	.	4.f-X/	.
4G-/	.	.	4a-/
.	.	8e-/)	.
=24	=24	=24	=24
4F-X/	1AA-\	4d-/	2dd-\
8E-/L	.	(>8c/L	.
8D-/J	.	8B-/J	.
4E-/	.	4c/	4cc\
4F-/	.	4d-/)	4b-\
=25	=25	=25	=25
!	!	!	!LO:N:vis=2.
4Fn/	1AA-\	4dn/	2a-/
4G-/	.	4e-/	.
4A-/	.	4.f/	8a-/
.	.	.	8r
4G-/	.	.	4a-/
.	.	8e-/	.
=26	=26	=26	=26
2.F/	1AA-\	1dn/	(>4a-/
.	.	.	4an/
.	.	.	4b-/
4B-/	.	.	4a-X/)
=27	=27	=27	=27
2B-/	1AA-\	4e-/	[>2g-/
.	.	4dn/	.
4G-/	.	4e-/	4g-/]
!	!	!	!LO:TX:t=P:problem=utwór niekompletny
4F-X/	.	4d-X/	4gn/
*v	*v	*	*
==	==	==
*-	*-	*-
!!!system-decoration: [s1,{s2,s3}]
!!!RDF**kern: > = above
!!!RDF**kern: < = below
!!!EED: Leszek Kubiak
!!!EEV: 2021-04-20
!!!ENC: Kamil Watkowski
!!!END: 2021-04-01
